X: 10561
T: MISS GAYTON'S DANCE
R: hornpipe
B: K\"ohler's Violin Repository, v.1, 1885 p.56 #1
F: http://www.archive.org/details/klersviolinrepos01edin
Z: 2011 John Chambers <jc:trillian.mit.edu>
M: C|
L: 1/8
K: G
(ud>c) |\
(B>d)g>f g2d>c | (B>d)g>f g2e^c | (d>f)a>g (f>e)d>^c | (d>f)a>g
(f>e)d>c | (B>d)g>f g2d>c | (B>d)g>f g2g>f | (e>f)g>e (f>g)a>f | g2b2 g2 :|
|: (ug>a) |\
(b>^a)b>g (=a>^g)a>f | (=g>a)g>e (d>e)d>B | (c>d)e>c (B>c)d>B | A>^GA>B
A2=g>a | (b>^a)b>g (=a>^g)a>f | (=g>a)g>e d2g>f | (e>f)g>e (f>g)a>f | g2b2 g2 :|

%%sep 2 1 500

